X:14248
T:Ri/l gan ainm
M:C|
L:1/8
S:Session in Cleary's back room, Miltown Malbay 1991
R:reel
K:Amix
cd|:~e3f ecAc|efec d2cd|eA~A2 ef{a}ge|1 dBGB d2cd:|2 dBGB dfed||
|:cA{c}A^G ~A3B|cA{c}Ac efed|cA~A2 ef{a}ge|1 dBGB dfed:|2 dBGB d2fg||
|:aece aece|~a3g e2ef|1 gdBd gdBd|(3gag fg ef{a}ge:|2 ~g3e ~f3d|(3gag fg
 edcd||
